src/pos-icons/air-horn.svg

<svg height="24" viewBox="0 0 24 24" width="24" xmlns="http://www.w3.org/2000/svg"><path d="m19 2.8v3.2 3.2c0 .3-.3.6-.6.5 0 0-3.9-2.6-8.4-2.6v2.4h.2c.5 0 1 .2 1.2.6l1.3 1.8c.2.2.3.5.3.7v8c0 .7-.7 1.4-1.5 1.4h-5c-.8 0-1.5-.6-1.5-1.4v-8c0-.3.1-.5.3-.7l1.3-1.8c.3-.4.7-.6 1.2-.6h.2v-1.5c-.4.5-1 .8-1.6.8-1.3 0-2.4-1.3-2.4-2.8s1.1-2.8 2.4-2.8c.6.1 1.2.4 1.6.8v-1.4h2v2.4c4.5 0 8.4-2.6 8.4-2.6.3-.1.6.1.6.4z"/></svg>

<?xml version="1.0" encoding="UTF-8"?><!DOCTYPE svg PUBLIC "-//W3C//DTD SVG 1.1//EN" "http://www.w3.org/Graphics/SVG/1.1/DTD/svg11.dtd"><svg xmlns="http://www.w3.org/2000/svg" xmlns:xlink="http://www.w3.org/1999/xlink" version="1.1" id="mdi-air-horn" width="24" height="24" viewBox="0 0 24 24"><path d="M19,2.8V6L19,9.2C19,9.5 18.7,9.8 18.4,9.7C18.4,9.7 14.5,7.1 10,7.1V9.5H10.2C10.7,9.5 11.2,9.7 11.4,10.1L12.7,11.9C12.9,12.1 13,12.4 13,12.6V20.6C13,21.3 12.3,22 11.5,22H6.5C5.7,22 5,21.4 5,20.6V12.6C5,12.3 5.1,12.1 5.3,11.9L6.6,10.1C6.9,9.7 7.3,9.5 7.8,9.5H8V8C7.6,8.5 7,8.8 6.4,8.8C5.1,8.8 4,7.5 4,6C4,4.5 5.1,3.2 6.4,3.2C7,3.3 7.6,3.6 8,4V2.6H10V5C14.5,5 18.4,2.4 18.4,2.4C18.7,2.3 19,2.5 19,2.8Z" /></svg>
